public/images/icons/village-history.svg

<svg width="60" height="60" viewBox="0 0 60 60" fill="none" xmlns="http://www.w3.org/2000/svg">
<path d="M38.5084 54.4847V45.1834C38.5084 45.0956 38.4372 45.0245 38.3495 45.0245H29.1795C29.1247 45.0245 29.0723 45.0472 29.0349 45.0873L26.6485 47.6406C26.63 47.6604 26.6076 47.6762 26.5827 47.687C26.5578 47.6977 26.531 47.7033 26.5039 47.7033C26.4768 47.7033 26.45 47.6977 26.4251 47.687C26.4002 47.6762 26.3778 47.6604 26.3593 47.6406L23.9729 45.0873C23.9544 45.0675 23.932 45.0517 23.9071 45.0409C23.8822 45.0301 23.8554 45.0245 23.8283 45.0245H3.1052C3.01742 45.0245 2.94629 45.0956 2.94629 45.1834V54.4847C2.94629 57.0454 5.02215 59.1211 7.5827 59.1211H43.1449C40.5842 59.1211 38.5084 57.0452 38.5084 54.4847ZM57.0542 6.78059V5.51531C57.0542 2.95465 54.9784 0.878906 52.4178 0.878906C49.8571 0.878906 47.7814 2.95477 47.7814 5.51531V14.9756H56.8953C56.9831 14.9756 57.0542 14.9045 57.0542 14.8167V12.132C57.0542 12.0771 57.0315 12.0247 56.9914 11.9873L54.4381 9.60094C54.4183 9.58241 54.4025 9.56002 54.3918 9.53514C54.381 9.51027 54.3754 9.48344 54.3754 9.45633C54.3754 9.42921 54.381 9.40239 54.3918 9.37751C54.4025 9.35264 54.4183 9.33024 54.4381 9.31172L56.9914 6.92531C57.0315 6.8877 57.0542 6.83531 57.0542 6.78059Z" fill="#FFD064"/>
<path d="M16.8553 0.878906C14.2946 0.878906 12.2189 2.95477 12.2189 5.51531V9.04734C14.8313 9.20602 18.7167 10.0468 22.407 12.0948C24.0491 13.0061 25.6524 14.1562 27.088 15.5917C32.3579 20.8616 33.7834 28.3949 33.6528 31.7929L22.407 20.5471L18.9635 17.1035C18.833 16.9731 18.6105 16.9842 18.4664 17.1282L16.9009 18.6938C16.7567 18.8379 16.7457 19.0604 16.8761 19.1909L20.3195 22.6342L31.5652 33.88C28.167 34.0103 20.6342 32.5848 15.3645 27.3151C14.1076 26.0582 13.0694 24.6725 12.2189 23.2448V34.6049C12.2189 34.6597 12.2416 34.7121 12.2817 34.7495L14.8348 37.1359C14.8546 37.1544 14.8704 37.1768 14.8812 37.2017C14.892 37.2266 14.8976 37.2534 14.8976 37.2805C14.8976 37.3076 14.892 37.3344 14.8812 37.3593C14.8704 37.3842 14.8546 37.4066 14.8348 37.4251L12.2816 39.8115C12.2617 39.83 12.2459 39.8524 12.2351 39.8773C12.2243 39.9022 12.2187 39.929 12.2188 39.9561V45.0241H23.8278C23.8827 45.0241 23.935 45.0469 23.9724 45.087L26.3588 47.6401C26.3774 47.6599 26.3997 47.6757 26.4246 47.6865C26.4495 47.6973 26.4763 47.7028 26.5034 47.7028C26.5306 47.7028 26.5574 47.6973 26.5823 47.6865C26.6071 47.6757 26.6295 47.6599 26.648 47.6401L29.0345 45.087C29.053 45.0671 29.0753 45.0513 29.1002 45.0405C29.1251 45.0297 29.1519 45.0241 29.1791 45.0241H38.349C38.4368 45.0241 38.5079 45.0953 38.5079 45.183V54.4843C38.5079 57.045 40.5838 59.1207 43.1443 59.1207C45.705 59.1207 47.7807 57.0449 47.7807 54.4843V29.8125C47.7807 29.7577 47.758 29.7053 47.7179 29.6679L45.1647 27.2815C45.1449 27.263 45.1291 27.2406 45.1184 27.2157C45.1076 27.1908 45.102 27.164 45.102 27.1369C45.102 27.1098 45.1076 27.0829 45.1184 27.0581C45.1291 27.0332 45.1449 27.0108 45.1647 26.9923L47.718 24.6059C47.7581 24.5685 47.7808 24.5161 47.7808 24.4612V5.51531C47.7808 2.95465 49.8567 0.878906 52.4172 0.878906H16.8553Z" fill="#FFF0AF"/>
<path d="M43.6994 0.878906C43.3013 1.57733 43.0925 2.36763 43.0937 3.17156V22.1174C43.0937 22.1722 43.0709 22.2246 43.0309 22.262L40.4777 24.6484C40.4579 24.6669 40.4421 24.6893 40.4313 24.7142C40.4205 24.7391 40.415 24.7659 40.415 24.793C40.415 24.8201 40.4205 24.8469 40.4313 24.8718C40.4421 24.8967 40.4579 24.9191 40.4777 24.9376L43.0309 27.324C43.0709 27.3614 43.0937 27.4138 43.0937 27.4686V52.1408C43.0937 54.4869 41.3512 56.4259 39.0898 56.7343C39.8813 58.1578 41.4005 59.121 43.1448 59.121C45.7054 59.121 47.7812 57.0451 47.7812 54.4846V29.8125C47.7812 29.7577 47.7584 29.7053 47.7184 29.6679L45.1652 27.2815C45.1454 27.263 45.1296 27.2406 45.1188 27.2157C45.108 27.1908 45.1025 27.164 45.1025 27.1369C45.1025 27.1098 45.108 27.0829 45.1188 27.0581C45.1296 27.0332 45.1454 27.0108 45.1652 26.9923L47.7185 24.6059C47.7586 24.5685 47.7813 24.5161 47.7813 24.4612V5.51531C47.7813 2.95465 49.8571 0.878906 52.4177 0.878906H43.6994Z" fill="#FFE07D"/>
<path d="M41.9299 40.386C42.0465 40.386 42.1049 40.2451 42.0225 40.1627L18.9635 17.1037C18.8331 16.9733 18.6106 16.9844 18.4664 17.1284L16.9009 18.6939C16.7568 18.8381 16.7458 19.0606 16.8762 19.191L38.0328 40.3477C38.0572 40.3722 38.0905 40.386 38.1253 40.386H41.9299Z" fill="#C6BEB9"/>
<path d="M33.6533 31.793C33.7838 28.395 32.3584 20.8618 27.0885 15.5918C25.653 14.1564 24.0496 13.0062 22.4075 12.095V20.5472L33.6533 31.793ZM20.32 22.6343H11.8682C12.7794 24.2764 13.9296 25.8797 15.365 27.3153C20.6347 32.585 28.1675 34.0106 31.5657 33.8801L20.32 22.6343Z" fill="#F9F6F6"/>
<path d="M16.8766 19.191C16.7462 19.0605 16.7573 18.838 16.9013 18.6939L18.4668 17.1283C18.611 16.9842 18.8335 16.9732 18.9639 17.1036L22.4075 20.5472V12.0949C16.4405 8.78354 9.96357 8.62804 9.1824 9.40921C8.40123 10.1904 8.55674 16.6673 11.8681 22.6343H20.3199L16.8766 19.191Z" fill="#8E736E"/>
<path d="M21.5518 6.64551C21.0664 6.64551 20.6729 7.03891 20.6729 7.52441C20.6729 8.00992 21.0664 8.40332 21.5518 8.40332H41.9216C42.407 8.40332 42.8005 8.00992 42.8005 7.52441C42.8005 7.03891 42.407 6.64551 41.9216 6.64551H21.5518ZM25.4776 35.6494C25.4776 35.4163 25.385 35.1928 25.2202 35.0279C25.0553 34.8631 24.8318 34.7705 24.5987 34.7705H18.0781C17.5927 34.7705 17.1992 35.1639 17.1992 35.6494C17.1992 36.1349 17.5927 36.5283 18.0781 36.5283H24.5987C24.8318 36.5283 25.0553 36.4357 25.2202 36.2709C25.385 36.1061 25.4776 35.8825 25.4776 35.6494Z" fill="black"/>
<path d="M42.8762 39.773L34.9439 31.8408H41.8851C42.3664 31.8408 42.7861 31.4699 42.8005 30.9888C42.8041 30.8712 42.784 30.754 42.7415 30.6443C42.699 30.5345 42.6348 30.4345 42.5529 30.35C42.471 30.2655 42.3729 30.1983 42.2645 30.1525C42.1561 30.1066 42.0396 30.083 41.9219 30.083H34.4885C34.4192 29.1955 34.2788 28.2057 34.0561 27.1533H41.8851C42.3664 27.1533 42.7861 26.7824 42.8005 26.3013C42.8041 26.1837 42.784 26.0665 42.7415 25.9568C42.699 25.847 42.6348 25.747 42.5529 25.6625C42.471 25.578 42.3729 25.5108 42.2645 25.465C42.1561 25.4191 42.0396 25.3955 41.9219 25.3955H33.6202C33.3375 24.4003 32.9979 23.4221 32.6032 22.4658H41.8851C42.3664 22.4658 42.7861 22.0949 42.8005 21.6138C42.8041 21.4962 42.784 21.379 42.7415 21.2693C42.699 21.1595 42.6348 21.0595 42.5529 20.975C42.471 20.8905 42.3729 20.8233 42.2645 20.7775C42.1561 20.7316 42.0396 20.708 41.9219 20.708H31.7994C31.3179 19.752 30.7646 18.8051 30.1331 17.8901C30.1113 17.851 30.0866 17.8136 30.0593 17.7783H41.8851C42.3664 17.7783 42.7861 17.4074 42.8005 16.9263C42.8041 16.8087 42.784 16.6915 42.7415 16.5818C42.699 16.472 42.6348 16.372 42.5529 16.2875C42.471 16.203 42.3729 16.1358 42.2645 16.09C42.1561 16.0441 42.0396 16.0205 41.9219 16.0205H28.687C27.7467 14.9355 26.7161 13.9751 25.5485 13.0908H41.8851C42.3664 13.0908 42.7861 12.7199 42.8005 12.2388C42.8041 12.1212 42.784 12.004 42.7415 11.8943C42.699 11.7845 42.6348 11.6845 42.5529 11.6C42.471 11.5155 42.3729 11.4483 42.2645 11.4025C42.1561 11.3566 42.0396 11.333 41.9219 11.333C21.9721 11.333 22.852 11.3366 22.8338 11.3264C21.9113 10.8128 20.8857 10.3284 19.8225 9.91066C19.7962 9.89892 19.7694 9.88843 19.7422 9.87926C17.5228 9.01559 15.172 8.45168 13.098 8.23981V5.51531C13.098 3.44004 14.7804 1.75781 16.8555 1.75781H48.3839C47.4652 2.74336 46.9024 4.065 46.9024 5.51531V17.2337C46.9024 17.715 47.2732 18.1346 47.7542 18.1491C47.8719 18.1527 47.989 18.1326 48.0988 18.0901C48.2086 18.0476 48.3086 17.9835 48.3931 17.9015C48.4776 17.8196 48.5448 17.7215 48.5907 17.6131C48.6366 17.5047 48.6602 17.3882 48.6602 17.2705V15.8544H56.8952C57.1704 15.8544 57.4344 15.7451 57.629 15.5504C57.8237 15.3558 57.933 15.0918 57.933 14.8166V12.1317C57.933 11.9842 57.9027 11.8382 57.844 11.7029C57.7852 11.5676 57.6992 11.4457 57.5914 11.345L55.5705 9.45621L57.5913 7.56738C57.699 7.4665 57.7848 7.34463 57.8436 7.20929C57.9024 7.07395 57.9328 6.92802 57.933 6.78047V5.51531C57.9331 2.46926 55.4638 0 52.4177 0H16.8556C13.8096 0 11.3402 2.46926 11.3402 5.51531V8.14102C10.2103 8.13855 9.06828 8.28012 8.56063 8.78789C7.57039 9.77812 7.97328 13.1828 8.12047 14.2027C8.57527 17.3566 9.7052 20.675 11.3402 23.4846V34.6052C11.3402 34.7527 11.3705 34.8987 11.4292 35.034C11.488 35.1693 11.5739 35.2911 11.6817 35.3918L13.7027 37.2807L11.681 39.1705C11.5736 39.2714 11.488 39.3931 11.4295 39.5283C11.3709 39.6635 11.3405 39.8092 11.3403 39.9565V44.1456H3.1052C2.82995 44.1456 2.56598 44.2549 2.37135 44.4496C2.17672 44.6442 2.06738 44.9082 2.06738 45.1834V54.4847C2.06738 57.5307 4.53664 60 7.5827 60H43.1449C46.1776 60 48.6602 57.5341 48.6602 54.4847V29.8125C48.6602 29.665 48.6299 29.519 48.5711 29.3837C48.5124 29.2483 48.4264 29.1265 48.3186 29.0258L46.2977 27.137L48.3185 25.2482C48.4261 25.1473 48.512 25.0254 48.5708 24.8901C48.6295 24.7547 48.66 24.6088 48.6602 24.4612V21.409C48.6602 20.9277 48.2894 20.508 47.8084 20.4936C47.6907 20.49 47.5735 20.5101 47.4638 20.5526C47.354 20.5951 47.2539 20.6592 47.1694 20.7412C47.0849 20.8231 47.0178 20.9212 46.9719 21.0296C46.926 21.138 46.9024 21.2545 46.9024 21.3722V24.1656L44.565 26.3503C44.1105 26.7754 44.1099 27.4986 44.5651 27.9237L46.9023 30.1083V54.4099C46.9023 56.5123 45.1818 58.2776 43.0798 58.2417C41.0377 58.2069 39.3873 56.535 39.3873 54.4847V45.1834C39.3873 44.9082 39.2779 44.6442 39.0833 44.4496C38.8887 44.2549 38.6247 44.1456 38.3495 44.1456H29.1795C29.032 44.1459 28.8862 44.1763 28.7509 44.2351C28.6156 44.2938 28.4937 44.3795 28.3927 44.4871L26.5038 46.5081L24.6141 44.4862C24.5133 44.3789 24.3915 44.2933 24.2563 44.2347C24.1212 44.1761 23.9755 44.1458 23.8282 44.1456H18.8857C18.4044 44.1456 17.9847 44.5165 17.9703 44.9975C17.9667 45.1152 17.9868 45.2323 18.0293 45.3421C18.0718 45.4518 18.136 45.5519 18.2179 45.6364C18.2998 45.7209 18.3979 45.788 18.5063 45.8339C18.6147 45.8798 18.7312 45.9034 18.8489 45.9034H23.5325L25.7171 48.2407C26.1421 48.6953 26.8651 48.6956 27.2905 48.2406L29.475 45.9034H37.6293V54.4848C37.6293 55.9352 38.1922 57.2568 39.1108 58.2423H7.5827C5.50742 58.2423 3.8252 56.56 3.8252 54.4848V45.9034H14.7106C15.1919 45.9034 15.6116 45.5325 15.626 45.0514C15.6296 44.9338 15.6095 44.8166 15.567 44.7069C15.5245 44.5972 15.4603 44.4971 15.3784 44.4126C15.2965 44.3281 15.1984 44.2609 15.09 44.2151C14.9816 44.1692 14.8651 44.1456 14.7474 44.1456H13.098V40.252L15.435 38.0677C15.8891 37.6438 15.8914 36.9205 15.4352 36.4939L13.098 34.3093V26.0791C14.3712 27.7 15.8172 29.0677 17.535 30.2711C17.4298 30.3537 17.3448 30.4593 17.2867 30.5798C17.2286 30.7003 17.1988 30.8325 17.1996 30.9663C17.202 31.4555 17.622 31.8408 18.1111 31.8408H20.1195C23.9138 33.8296 28.1825 34.7872 31.2092 34.767L35.9002 39.458H21.5889C21.1077 39.458 20.688 39.8289 20.6736 40.3099C20.67 40.4276 20.69 40.5447 20.7326 40.6545C20.7751 40.7642 20.8392 40.8643 20.9212 40.9488C21.0031 41.0333 21.1012 41.1004 21.2096 41.1463C21.318 41.1922 21.4345 41.2158 21.5521 41.2158H37.7314C37.8914 41.3007 38.0686 41.3483 38.2496 41.355H42.2209C43.0464 41.355 43.4599 40.3568 42.8762 39.773ZM52.4177 1.75781C54.4896 1.75781 56.1752 3.44344 56.1752 5.51531V6.4848L53.8379 8.66953C53.3834 9.09457 53.3829 9.81785 53.838 10.2429L56.1752 12.4275V14.0967H48.6601V5.51531C48.6602 3.44344 50.3458 1.75781 52.4177 1.75781ZM38.7209 39.6755L28.7728 29.7272C28.607 29.5669 28.3849 29.4782 28.1544 29.4802C27.9238 29.4822 27.7033 29.5746 27.5402 29.7377C27.3772 29.9007 27.2848 30.1213 27.2828 30.3518C27.2809 30.5824 27.3696 30.8044 27.5299 30.9702L29.4665 32.9068C25.2148 32.4367 20.6027 30.5994 17.2136 27.717H19.0402C19.5256 27.717 19.9191 27.3236 19.9191 26.838C19.9191 26.3525 19.5256 25.9591 19.0402 25.9591H15.4081C14.7343 25.2077 14.1093 24.39 13.5386 23.5131H20.0727L24.5814 28.0219C24.7472 28.1821 24.9693 28.2708 25.1999 28.2689C25.4304 28.2669 25.651 28.1744 25.814 28.0114C25.977 27.8484 26.0694 27.6278 26.0714 27.3973C26.0733 27.1667 25.9846 26.9446 25.8243 26.7789L18.0002 18.9547L18.8446 18.1103L40.4097 39.6754H38.7209V39.6755ZM25.9404 19.3214C26.1735 19.3214 26.397 19.2288 26.5618 19.064C26.7267 18.8992 26.8193 18.6756 26.8193 18.4425V16.5758C27.4194 17.2112 27.976 17.8862 28.4854 18.5964V23.1069C28.4854 23.5924 28.8789 23.9858 29.3643 23.9858C29.8497 23.9858 30.2432 23.5924 30.2432 23.1069V21.5026C31.022 23.0439 31.6399 24.6936 32.0765 26.3647C32.0855 26.4531 32.1076 26.5375 32.1409 26.6162C32.4045 27.6705 32.5803 28.6719 32.6803 29.5775L23.2861 20.1834V13.6489C23.9008 14.0483 24.4934 14.4807 25.0613 14.9442V18.4429C25.0614 18.6759 25.1541 18.8994 25.3189 19.0641C25.4838 19.2289 25.7073 19.3214 25.9404 19.3214ZM9.82098 10.048C10.269 9.8925 11.7902 9.77801 14.0328 10.1339C15.5529 10.3752 17.0995 10.7817 18.5837 11.3225V13.5323C18.5837 14.0179 18.9772 14.4112 19.4626 14.4112C19.948 14.4112 20.3415 14.0179 20.3415 13.5323V12.0398C20.7425 12.2217 21.1382 12.4149 21.5282 12.6193V18.4254L19.5853 16.4824C19.112 16.009 18.3338 16.0184 17.845 16.507L16.2796 18.0723C15.793 18.5587 15.7817 19.3395 16.2548 19.8127L18.1977 21.7555H12.3922C11.5542 20.1581 10.8737 18.3888 10.4005 16.5934H12.219C12.7044 16.5934 13.0979 16.2 13.0979 15.7145C13.0979 15.229 12.7044 14.8356 12.219 14.8356H10.006C9.97053 14.6441 9.93748 14.4522 9.90688 14.26C9.55098 12.0172 9.66559 10.496 9.82098 10.048Z" fill="black"/>
</svg>

<svg xmlns="http://www.w3.org/2000/svg" width="60" height="60" fill="none" xmlns:v="https://vecta.io/nano"><path d="M38.508 54.485v-9.301c0-.088-.071-.159-.159-.159h-9.17c-.055 0-.107.023-.145.063l-2.386 2.553c-.018.02-.041.036-.066.046a.2.2 0 0 1-.158 0c-.025-.011-.047-.027-.066-.046l-2.386-2.553c-.018-.02-.041-.036-.066-.046s-.052-.016-.079-.016H3.105c-.088 0-.159.071-.159.159v9.301a4.64 4.64 0 0 0 4.636 4.636h35.562a4.64 4.64 0 0 1-4.636-4.636zM57.054 6.781V5.515A4.64 4.64 0 0 0 52.418.879a4.64 4.64 0 0 0-4.636 4.636v9.46h9.114c.088 0 .159-.071.159-.159v-2.685c0-.055-.023-.107-.063-.145l-2.553-2.386c-.02-.019-.036-.041-.046-.066s-.016-.052-.016-.079.006-.054.016-.079.026-.047.046-.066l2.553-2.386c.04-.038.063-.09.063-.145z" fill="#ffd064"/><path d="M16.855.879a4.64 4.64 0 0 0-4.636 4.636v3.532c2.612.159 6.498.999 10.188 3.047 1.642.911 3.245 2.061 4.681 3.497 5.27 5.27 6.695 12.803 6.565 16.201L22.407 20.547l-3.443-3.444c-.131-.13-.353-.119-.497.025l-1.565 1.566c-.144.144-.155.367-.025.497l3.443 3.443L31.565 33.88c-3.398.13-10.931-1.295-16.201-6.565a20.78 20.78 0 0 1-3.146-4.07v11.36c0 .055.023.107.063.145l2.553 2.386c.02.019.036.041.046.066s.016.052.016.079-.006.054-.016.079-.027.047-.046.066l-2.553 2.386c-.02.018-.036.041-.046.066s-.016.052-.016.079v5.068h11.609c.055 0 .107.023.145.063l2.386 2.553c.019.02.041.036.066.046s.052.016.079.016.054-.006.079-.016.047-.027.066-.046l2.387-2.553c.018-.02.041-.036.066-.047s.052-.016.079-.016h9.17c.088 0 .159.071.159.159v9.301a4.64 4.64 0 0 0 4.636 4.636 4.64 4.64 0 0 0 4.636-4.636V29.813c0-.055-.023-.107-.063-.145l-2.553-2.386c-.02-.018-.036-.041-.046-.066s-.016-.052-.016-.079.006-.054.016-.079.026-.047.046-.066l2.553-2.386c.04-.037.063-.09.063-.145V5.515A4.64 4.64 0 0 1 52.417.879H16.855z" fill="#fff0af"/><path d="M43.699.879c-.398.698-.607 1.489-.606 2.293v18.946c0 .055-.023.107-.063.145l-2.553 2.386c-.02.018-.036.041-.046.066s-.016.052-.016.079.005.054.016.079.027.047.046.066l2.553 2.386c.04.037.063.09.063.145v24.672a4.64 4.64 0 0 1-4.004 4.593c.792 1.424 2.311 2.387 4.055 2.387a4.64 4.64 0 0 0 4.636-4.636V29.813c0-.055-.023-.107-.063-.145l-2.553-2.386c-.02-.018-.036-.041-.046-.066s-.016-.052-.016-.079.005-.054.016-.079.027-.047.046-.066l2.553-2.386c.04-.037.063-.09.063-.145V5.515A4.64 4.64 0 0 1 52.418.879h-8.718z" fill="#ffe07d"/><path d="M41.93 40.386c.117 0 .175-.141.093-.223L18.964 17.104c-.13-.13-.353-.119-.497.025l-1.565 1.566c-.144.144-.155.367-.025.497l21.157 21.157a.13.13 0 0 0 .093.038h3.805z" fill="#c6beb9"/><path d="M33.653 31.793c.13-3.398-1.295-10.931-6.565-16.201-1.436-1.435-3.039-2.586-4.681-3.497v8.452l11.246 11.246zM20.32 22.634h-8.452c.911 1.642 2.061 3.245 3.497 4.681 5.27 5.27 12.803 6.695 16.201 6.565L20.32 22.634z" fill="#f9f6f6"/><path d="M16.877 19.191c-.13-.13-.119-.353.025-.497l1.566-1.566c.144-.144.367-.155.497-.025l3.444 3.444v-8.452C16.441 8.784 9.964 8.628 9.182 9.409s-.626 7.258 2.686 13.225h8.452l-3.443-3.443z" fill="#8e736e"/><path d="M21.552 6.646a.88.88 0 0 0-.879.879.88.88 0 0 0 .879.879h20.37a.88.88 0 0 0 .879-.879.88.88 0 0 0-.879-.879h-20.37zm3.926 29.004a.88.88 0 0 0-.879-.879h-6.521a.88.88 0 0 0-.879.879.88.88 0 0 0 .879.879h6.521a.88.88 0 0 0 .879-.879zm17.398 4.123l-7.932-7.932h6.941c.481 0 .901-.371.915-.852a.88.88 0 0 0-.536-.837.88.88 0 0 0-.343-.07h-7.433a22.87 22.87 0 0 0-.432-2.93h7.829c.481 0 .901-.371.915-.852a.88.88 0 0 0-.536-.837.88.88 0 0 0-.343-.07H33.62a27.06 27.06 0 0 0-1.017-2.93h9.282c.481 0 .901-.371.915-.852a.88.88 0 0 0-.536-.837.88.88 0 0 0-.343-.07H31.799c-.481-.956-1.035-1.903-1.666-2.818-.022-.039-.046-.076-.074-.112h11.826c.481 0 .901-.371.915-.852a.88.88 0 0 0-.536-.837.88.88 0 0 0-.343-.07H28.687a20.42 20.42 0 0 0-3.139-2.93h16.337c.481 0 .901-.371.915-.852a.88.88 0 0 0-.248-.639.86.86 0 0 0-.288-.197.88.88 0 0 0-.343-.069c-19.95 0-19.07.004-19.088-.007a25.19 25.19 0 0 0-3.011-1.416.91.91 0 0 0-.08-.031c-2.219-.864-4.57-1.428-6.644-1.639v-2.72a3.76 3.76 0 0 1 3.757-3.758h31.528c-.919.986-1.481 2.307-1.481 3.758v11.718c0 .481.371.901.852.915a.88.88 0 0 0 .639-.248.88.88 0 0 0 .267-.631v-1.416h8.235a1.04 1.04 0 0 0 1.038-1.038V12.13a1.08 1.08 0 0 0-.342-.787L55.57 9.454l2.021-1.889a1.08 1.08 0 0 0 .342-.787V5.515C57.933 2.469 55.464 0 52.418 0H16.856C13.81 0 11.34 2.469 11.34 5.515v2.626c-1.13-.002-2.272.139-2.78.647-.99.99-.587 4.395-.44 5.415.455 3.154 1.585 6.472 3.22 9.282v11.121a1.08 1.08 0 0 0 .089.429c.059.135.145.257.252.358l2.021 1.889-2.022 1.89a1.08 1.08 0 0 0-.341.786v4.189H3.105a1.04 1.04 0 0 0-1.038 1.038v9.301c0 3.045 2.47 5.514 5.516 5.514h35.562c3.033 0 5.515-2.466 5.515-5.515V29.813a1.07 1.07 0 0 0-.089-.429c-.059-.135-.145-.257-.252-.358l-2.021-1.889 2.021-1.889a1.07 1.07 0 0 0 .252-.358 1.08 1.08 0 0 0 .089-.429v-3.052c0-.481-.371-.901-.852-.915a.88.88 0 0 0-.345.059c-.11.042-.21.107-.294.189a.88.88 0 0 0-.267.631v2.793l-2.337 2.185a1.08 1.08 0 0 0 0 1.573l2.337 2.185V54.41c0 2.102-1.72 3.868-3.822 3.832-2.042-.035-3.692-1.707-3.692-3.757v-9.301a1.04 1.04 0 0 0-1.038-1.038h-9.17a1.08 1.08 0 0 0-.787.341l-1.889 2.021-1.89-2.022a1.08 1.08 0 0 0-.786-.341h-4.942c-.481 0-.901.371-.915.852a.88.88 0 0 0 .879.906h4.684l2.185 2.337a1.08 1.08 0 0 0 1.573 0l2.185-2.337h8.154v8.581a5.5 5.5 0 0 0 1.481 3.758H7.583a3.76 3.76 0 0 1-3.757-3.758v-8.581h10.885c.481 0 .901-.371.915-.852a.88.88 0 0 0-.248-.639c-.082-.084-.18-.152-.288-.197a.88.88 0 0 0-.343-.069h-1.649v-3.894l2.337-2.184a1.08 1.08 0 0 0 0-1.574l-2.337-2.185v-8.23c1.273 1.621 2.719 2.989 4.437 4.192-.105.083-.19.188-.248.309a.88.88 0 0 0-.087.387c.002.489.422.875.912.875h2.008c3.794 1.989 8.063 2.946 11.09 2.926l4.691 4.691H21.589c-.481 0-.901.371-.915.852a.88.88 0 0 0 .879.906h16.179a1.2 1.2 0 0 0 .518.139h3.971a.93.93 0 0 0 .655-1.582zm9.542-38.015c2.072 0 3.757 1.686 3.757 3.758v.969L53.838 8.67a1.08 1.08 0 0 0 0 1.573l2.337 2.185v1.669H48.66V5.515c0-2.072 1.686-3.758 3.758-3.758zM38.721 39.676l-9.948-9.948a.88.88 0 0 0-1.233.011.88.88 0 0 0-.01 1.232l1.937 1.937c-4.252-.47-8.864-2.307-12.253-5.19h1.827a.88.88 0 0 0 .879-.879.88.88 0 0 0-.879-.879h-3.632a20.01 20.01 0 0 1-1.869-2.446h6.534l4.509 4.509a.88.88 0 0 0 1.233-.011.88.88 0 0 0 .01-1.232L18 18.955l.844-.844L40.41 39.675h-1.689 0zM25.94 19.321a.88.88 0 0 0 .879-.879v-1.867a19.47 19.47 0 0 1 1.666 2.021v4.511a.88.88 0 0 0 .879.879.88.88 0 0 0 .879-.879v-1.604a24.66 24.66 0 0 1 1.833 4.862.87.87 0 0 0 .064.252 22.47 22.47 0 0 1 .539 2.961l-9.394-9.394V13.65a20.28 20.28 0 0 1 1.775 1.295v3.499a.88.88 0 0 0 .879.878zM9.821 10.048c.448-.155 1.969-.27 4.212.086a24.73 24.73 0 0 1 4.551 1.189v2.21a.88.88 0 0 0 .879.879.88.88 0 0 0 .879-.879V12.04c.401.182.797.375 1.187.58v5.806l-1.943-1.943c-.473-.473-1.251-.464-1.74.025l-1.565 1.565c-.487.486-.498 1.267-.025 1.74l1.943 1.943h-5.805c-.838-1.597-1.519-3.367-1.992-5.162h1.819a.88.88 0 0 0 .879-.879.88.88 0 0 0-.879-.879h-2.213l-.099-.576c-.356-2.243-.241-3.764-.086-4.212z" fill="#000"/></svg>
